X:381
T:Uist Tramping Song 
C:Joe Buchanan's Scottish Tome - Page 045.1
I:045 1
R:March
Z:Carl Allison
L:1/8
M:4/4
K:Gmaj
DE | "G" G2 DE "Em" G2 GB | "Bm" d>d dB "D7" dd BA |
"G" G2 GB "Bm" d2 Bd | "C" e>e "G" dB "Am" BA "D" Bd |
"C" e>e ed "G" BA GA | "G" B>A "Em" GE "Am" ED "D7" DE |
"G" G>G "Em" G>G "Am" ed "D7" BA | "G" G2 DE G2 |]
DE | "G" GD B>A "Em" G2 GB | "Bm" d>d dB "D7" d2 BA |
"G" G>G GB "Bm" dd Bd | "C" e>e "G" dG "Am" A2 Bd |
"C" ee ed "G" BA GA | "G" B>A "Em" GE "Am" ED "D7" de |
"G" G>G "Em" GG "Am" ed "D7"BA | "G" G2 "C" GA "G"G2 |]

